X:1
T:040 - Amor de Cristo
T:Letra: Henry Maxwell Wright (1849-1931)
T:Música: Ballington Booth (1859-1940)
M:3/4
L:1/4
Q:1/4=140
K:D
V:1
"D"F3 | A2 d | "Em/G"e3 | "Em"B3 | "A"c2 B | A2 G | "D"F3- | F2 z | F2 A | d2 d | "Em/G"e3 | "Em"B2 B | "A"c2 A | f2 e | "D"d3- | d2 z |]
w: 1.~Qual gran-de va-ga Deum i-men-so mar,_ Vem oa-mor de Cris-to Mi-nhaal-ma trans-bor-dar._          				                    
W: 
W: 
W: Qual grande vaga
W: De um imenso mar,
W: Vem o amor de Cristo
W: Minha alma transbordar.
W:         
W: 				         
W:           





%wordsfont Times-Roman 13.0
%vocalfont Times-Roman 13.0
